X: 200
T: Bahçede Gördüm
C: Medenî Aziz Efendi
O: Turkey
F: http://compmusic.upf.edu/node/140
N: huseyni--sarki--duyek--bahcede_gordum--medeni_aziz_efendi
N: makam= huseyni
N: form= sarki
N: usul= duyek = 8/4
M: 8/4
L: 1/16
K: C _2/4B ^3/4f  
Q: 1/4=102
%%MIDI tuningsystem comma53
z2 d4 e2 e3g ^f3/2e/ de  | ^f3e a/g/a/_1/4b/ ag gf fe e4  | 
w:   |   | 
z2 d4 e=f gf ed c2 _1/4BA  | _1/4B3A AG dc cB BA A4  | 
w:   |   | 
^f4 g3a a4 a2 gf  | g3^f c'2 _1/4ba ag gf f4  | \
w:   |   | 
z2 g4 a2 a2 g^f _1/4b2 ag  | 
w:   | 
g3^f f2 ef ag fe d4  | c2 d4 e=f gf ed c2 _1/4BA  | 
w:   |   | 
_1/4B3A AG dc cB BA A4  | |


